X:1072
T:In the Tap Room
R:reel
H:See also #295, #378
D:Tap Room Trio
Z:id:hn-reel-1072
M:C|
L:1/8
K:Edor
E2 (3ABc d2 (3ABc | dBAF DEFD | E2BE dEBc |1 dBA=c BEED :|2 dBA=c BEE2 ||
(3Bcd ef g2fe | defa afed | Bdef gfe2 | dBA=c BEE2 |
(3Bcd ef g2fe | defa afd2 | gafg edBc | dBA=c BEED ||

